svg/device/desk_lamp_2_fill.svg

<svg xmlns="http://www.w3.org/2000/svg" width="24" height="24" viewBox="0 0 24 24"><g fill="none" fill-rule="evenodd"><path d="M24,0 L24,24 L0,24 L0,0 L24,0 Z M12.5935,23.2578 L12.5819,23.2595 L12.5109,23.295 L12.4919,23.2987 L12.4767,23.295 L12.4057,23.2595 C12.3958,23.2564 12.387,23.259 12.3821,23.2649 L12.378,23.2758 L12.3609,23.7031 L12.3659,23.7235 L12.3769,23.7357 L12.4805,23.8097 L12.4953,23.8136 L12.5071,23.8097 L12.6107,23.7357 L12.6233,23.7197 L12.6267,23.7031 L12.6096,23.2758 C12.6076,23.2657 12.601,23.2593 12.5935,23.2578 Z M12.8584,23.1453 L12.8445,23.1473 L12.6598,23.2397 L12.6499,23.2499 L12.6472,23.2611 L12.6651,23.6906 L12.6699,23.7034 L12.6784,23.7105 L12.8793,23.8032 C12.8914,23.8069 12.9022,23.803 12.9078,23.7952 L12.9118,23.7812 L12.8777,23.1665 C12.8753,23.1546 12.8674,23.147 12.8584,23.1453 Z M12.143,23.1473 C12.1332,23.1424 12.1222,23.1453 12.1156,23.1526 L12.1099,23.1665 L12.0758,23.7812 C12.0751,23.7927 12.0828,23.8019 12.0926,23.8046 L12.1083,23.8032 L12.3092,23.7105 L12.3186,23.7024 L12.3225,23.6906 L12.3404,23.2611 L12.3372,23.2485 L12.3278,23.2397 L12.143,23.1473 Z"/><path fill="#09244B" d="M19.8303,4.82903 C19.9218,5.17356 19.823,5.54074 19.5709,5.79281 L17.8032,7.56055 C18.9747,8.73213 18.9747,10.6316 17.8031,11.8032 C16.6316,12.9747 14.7321,12.9747 13.5605,11.8032 L11.7927,13.571 C11.5407,13.823 11.1735,13.9219 10.8289,13.8304 C10.4844,13.7389 10.2146,13.4709 10.1209,13.127 L9.08504,9.329 L6.28665,12.1274 L11.535,20 L13.9999,20 C14.5521,20 14.9999,20.4477 14.9999,21 C14.9999,21.5522 14.5521,22 13.9999,22 L7.99986,22 C7.44757,22 6.99986,21.5522 6.99986,21 C6.99986,20.4477 7.44757,20 7.99986,20 L9.13134,20 L4.62255,13.2368 C4.09372,12.4435 4.19831,11.3873 4.87244,10.7132 L8.47895,7.10666 L7.99953,5.34882 C7.90511,5.0026 8.00344,4.63234 8.25719,4.37859 L10.3785,2.25727 C10.6323,2.00352 11.0025,1.90519 11.3487,1.99961 L19.1269,4.12093 C19.4708,4.21473 19.7388,4.4845 19.8303,4.82903 Z M14.9747,10.389 C15.3653,10.7795 15.9984,10.7794 16.3889,10.3889 C16.7794,9.99843 16.7794,9.36529 16.3889,8.97477 L14.9747,10.389 Z"/></g></svg>

<svg xmlns="http://www.w3.org/2000/svg" width="24" height="24"><g fill="none" fill-rule="evenodd"><path d="M24 0v24H0V0zM12.594 23.258l-.012.002-.071.035-.02.004-.014-.004-.071-.036c-.01-.003-.019 0-.024.006l-.004.01-.017.428.005.02.01.013.104.074.015.004.012-.004.104-.074.012-.016.004-.017-.017-.427c-.002-.01-.009-.017-.016-.018m.264-.113-.014.002-.184.093-.01.01-.003.011.018.43.005.012.008.008.201.092c.012.004.023 0 .029-.008l.004-.014-.034-.614c-.003-.012-.01-.02-.02-.022m-.715.002a.023.023 0 0 0-.027.006l-.006.014-.034.614c0 .012.007.02.017.024l.015-.002.201-.093.01-.008.003-.011.018-.43-.003-.012-.01-.01z"/><path fill="#09244B" d="M19.83 4.829a1 1 0 0 1-.26.964L17.804 7.56a3 3 0 0 1-4.243 4.242l-1.767 1.768a1 1 0 0 1-1.672-.444L9.085 9.329l-2.798 2.798L11.535 20H14a1 1 0 0 1 0 2H8a1 1 0 0 1 0-2H9.13l-4.508-6.763a2 2 0 0 1 .25-2.524l3.606-3.606-.48-1.758a1 1 0 0 1 .258-.97l2.122-2.122a1 1 0 0 1 .97-.257l7.778 2.12a1 1 0 0 1 .703.709m-4.855 5.56a1 1 0 0 0 1.414-1.414z"/></g></svg>
